material/.icons/material/link-box-variant-outline.svg

<svg xmlns="http://www.w3.org/2000/svg" viewBox="0 0 24 24"><path d="M19 3H5a2 2 0 00-2 2v14a2 2 0 002 2h14a2 2 0 002-2V5a2 2 0 00-2-2m0 16H5V5h14v14m-5.06-8.94c.63.64.98 1.48.98 2.38 0 .9-.35 1.74-.98 2.37L11.73 17c-.65.67-1.51 1-2.37 1-.86 0-1.72-.33-2.36-1-1.33-1.29-1.33-3.42 0-4.74l1.35-1.36-.01.6c-.01.5.07 1 .23 1.44l.05.15-.4.41a1.597 1.597 0 000 2.28c.61.62 1.67.62 2.28 0l2.2-2.19c.3-.31.48-.72.48-1.15 0-.44-.18-.83-.48-1.14a.87.87 0 010-1.24c.33-.33.91-.32 1.24 0m4.06-.7c0 .9-.35 1.74-1 2.38l-1.34 1.36v-.6c.01-.5-.07-1-.23-1.44l-.05-.14.4-.42a1.597 1.597 0 000-2.28c-.61-.62-1.68-.61-2.28 0l-2.2 2.2c-.3.3-.48.71-.48 1.14 0 .44.18.83.48 1.14.17.16.26.38.26.62s-.09.46-.26.62a.86.86 0 01-.62.25c-.22 0-.45-.08-.62-.25a3.362 3.362 0 010-4.75L12.27 7A3.311 3.311 0 0117 7c.65.62 1 1.46 1 2.36z"/></svg>

<?xml version="1.0" encoding="UTF-8"?><!DOCTYPE svg PUBLIC "-//W3C//DTD SVG 1.1//EN" "http://www.w3.org/Graphics/SVG/1.1/DTD/svg11.dtd"><svg xmlns="http://www.w3.org/2000/svg" xmlns:xlink="http://www.w3.org/1999/xlink" version="1.1" id="mdi-link-box-variant-outline" width="24" height="24" viewBox="0 0 24 24"><path d="M19,3H5A2,2 0 0,0 3,5V19A2,2 0 0,0 5,21H19A2,2 0 0,0 21,19V5A2,2 0 0,0 19,3M19,19H5V5H19V19M13.94,10.06C14.57,10.7 14.92,11.54 14.92,12.44C14.92,13.34 14.57,14.18 13.94,14.81L11.73,17C11.08,17.67 10.22,18 9.36,18C8.5,18 7.64,17.67 7,17C5.67,15.71 5.67,13.58 7,12.26L8.35,10.9L8.34,11.5C8.33,12 8.41,12.5 8.57,12.94L8.62,13.09L8.22,13.5C7.91,13.8 7.74,14.21 7.74,14.64C7.74,15.07 7.91,15.47 8.22,15.78C8.83,16.4 9.89,16.4 10.5,15.78L12.7,13.59C13,13.28 13.18,12.87 13.18,12.44C13.18,12 13,11.61 12.7,11.3C12.53,11.14 12.44,10.92 12.44,10.68C12.44,10.45 12.53,10.23 12.7,10.06C13.03,9.73 13.61,9.74 13.94,10.06M18,9.36C18,10.26 17.65,11.1 17,11.74L15.66,13.1V12.5C15.67,12 15.59,11.5 15.43,11.06L15.38,10.92L15.78,10.5C16.09,10.2 16.26,9.79 16.26,9.36C16.26,8.93 16.09,8.53 15.78,8.22C15.17,7.6 14.1,7.61 13.5,8.22L11.3,10.42C11,10.72 10.82,11.13 10.82,11.56C10.82,12 11,12.39 11.3,12.7C11.47,12.86 11.56,13.08 11.56,13.32C11.56,13.56 11.47,13.78 11.3,13.94C11.13,14.11 10.91,14.19 10.68,14.19C10.46,14.19 10.23,14.11 10.06,13.94C8.75,12.63 8.75,10.5 10.06,9.19L12.27,7C13.58,5.67 15.71,5.68 17,7C17.65,7.62 18,8.46 18,9.36Z" /></svg>
